icons/server-dividedB.svg

<svg width="24" height="24" viewBox="0 0 24 24" fill="none" xmlns="http://www.w3.org/2000/svg">
<path d="M3 12V15C3 18.3 5.7 21 9 21H15C18.3 21 21 18.3 21 15V12H3ZM7.2 17C7 17.2 6.8 17.3 6.5 17.3C6.2 17.3 6 17.2 5.8 17C5.7 16.9 5.6 16.8 5.6 16.7C5.6 16.6 5.5 16.4 5.5 16.3C5.5 16.2 5.5 16 5.6 15.9C5.6 15.8 5.7 15.7 5.8 15.6C6.2 15.2 6.9 15.2 7.2 15.6C7.3 15.7 7.4 15.8 7.4 15.9C7.4 16 7.5 16.2 7.5 16.3C7.5 16.6 7.4 16.8 7.2 17ZM11 17C10.8 17.2 10.5 17.3 10.3 17.3C10 17.3 9.8 17.2 9.6 17C9.4 16.8 9.3 16.6 9.3 16.3C9.3 16 9.4 15.8 9.6 15.6C10 15.2 10.6 15.2 11 15.6C11.2 15.8 11.3 16 11.3 16.3C11.3 16.6 11.2 16.8 11 17Z" fill="black"/>
<path fill-rule="evenodd" clip-rule="evenodd" d="M2.25 11.25H21.75V15C21.75 18.7142 18.7142 21.75 15 21.75H9C5.28579 21.75 2.25 18.7142 2.25 15V11.25ZM3.75 12.75V15C3.75 17.8858 6.11421 20.25 9 20.25H15C17.8858 20.25 20.25 17.8858 20.25 15V12.75H3.75ZM6.35 16.1129V16.2107L6.27058 16.2901C6.28152 16.3232 6.29582 16.3676 6.30795 16.412C6.3118 16.4262 6.31593 16.4421 6.32004 16.4594C6.32329 16.4626 6.32672 16.4661 6.33033 16.4697C6.38605 16.5254 6.41198 16.5374 6.4171 16.5396C6.41701 16.5396 6.41716 16.5397 6.4171 16.5396C6.41998 16.541 6.43954 16.55 6.5 16.55C6.56046 16.55 6.57978 16.5411 6.58266 16.5397C6.5826 16.5398 6.58276 16.5397 6.58266 16.5397C6.58779 16.5375 6.61395 16.5254 6.66967 16.4697C6.72539 16.4139 6.73736 16.388 6.73964 16.3829C6.7396 16.383 6.73967 16.3828 6.73964 16.3829C6.74036 16.3813 6.74341 16.3747 6.74595 16.3597C6.74378 16.3531 6.74131 16.3456 6.73849 16.3372L6.73658 16.3315C6.72541 16.298 6.70706 16.243 6.69205 16.188C6.6882 16.1738 6.68407 16.1579 6.67996 16.1406C6.67671 16.1374 6.67328 16.1339 6.66967 16.1303L6.63198 16.0926L6.60841 16.0612C6.59952 16.0571 6.57803 16.05 6.5375 16.05C6.46628 16.05 6.39759 16.0753 6.35 16.1129ZM7.76122 15.1006C7.43723 14.7054 6.95958 14.55 6.5375 14.55C6.09425 14.55 5.62267 14.7167 5.26967 15.0697C5.26702 15.0723 5.26416 15.0752 5.26108 15.0782C5.21752 15.1217 5.13324 15.2057 5.0625 15.3C5.02048 15.356 4.95206 15.4552 4.90424 15.5896C4.81872 15.7431 4.78698 15.891 4.7727 15.9767C4.74977 16.1143 4.74993 16.242 4.74999 16.2931C4.75 16.2956 4.75 16.2979 4.75 16.3C4.75 16.3713 4.75854 16.4322 4.76609 16.4743C4.77396 16.5181 4.78367 16.5572 4.79205 16.588C4.80706 16.643 4.82541 16.698 4.83658 16.7315L4.83849 16.7372C4.84555 16.7584 4.85042 16.7731 4.85388 16.7839C4.87717 17.035 4.9995 17.216 5.0625 17.3C5.13324 17.3943 5.21753 17.4783 5.26109 17.5218C5.26416 17.5248 5.26702 17.5277 5.26967 17.5303C5.41395 17.6746 5.58802 17.8126 5.8079 17.9104C6.03103 18.0095 6.26249 18.05 6.5 18.05C6.73751 18.05 6.96897 18.0095 7.1921 17.9104C7.41198 17.8126 7.58605 17.6746 7.73033 17.5303C7.87461 17.3861 8.01264 17.212 8.11036 16.9921C8.20953 16.769 8.25 16.5375 8.25 16.3C8.25 16.2287 8.24146 16.1678 8.23391 16.1257C8.22604 16.0819 8.21633 16.0428 8.20795 16.012C8.19294 15.957 8.17459 15.902 8.16342 15.8685L8.16151 15.8628C8.15445 15.8416 8.14958 15.8269 8.14612 15.8161C8.12283 15.565 8.0005 15.384 7.9375 15.3C7.87743 15.2199 7.8076 15.1472 7.76122 15.1006ZM10.3 16.05C10.2552 16.05 10.1942 16.0665 10.1303 16.1303C10.0746 16.1861 10.0626 16.212 10.0604 16.2171C10.0603 16.2172 10.0604 16.217 10.0604 16.2171C10.059 16.22 10.05 16.2395 10.05 16.3C10.05 16.3605 10.0589 16.3798 10.0603 16.3827C10.0625 16.3878 10.0746 16.4139 10.1303 16.4697C10.1861 16.5254 10.212 16.5374 10.2171 16.5396C10.2199 16.5409 10.2386 16.5496 10.2957 16.55C10.2979 16.5497 10.303 16.549 10.3111 16.5473C10.3272 16.5439 10.3483 16.5379 10.3715 16.5286C10.4217 16.5086 10.455 16.4844 10.4697 16.4697C10.5254 16.4139 10.5374 16.388 10.5396 16.3829C10.541 16.38 10.55 16.3605 10.55 16.3C10.55 16.2395 10.5411 16.2202 10.5397 16.2173C10.5375 16.2122 10.5254 16.1861 10.4697 16.1303C10.4058 16.0665 10.3448 16.05 10.3 16.05ZM9.06967 15.0697C9.76256 14.3768 10.8374 14.3768 11.5303 15.0697C11.6746 15.2139 11.8126 15.388 11.9104 15.6079C12.0095 15.831 12.05 16.0625 12.05 16.3C12.05 16.5375 12.0095 16.769 11.9104 16.9921C11.8126 17.212 11.6746 17.3861 11.5303 17.5303C11.1805 17.8802 10.6855 18.05 10.3 18.05C10.0625 18.05 9.83103 18.0095 9.6079 17.9104C9.38802 17.8126 9.21395 17.6746 9.06967 17.5303C8.92539 17.3861 8.78736 17.212 8.68964 16.9921C8.59047 16.769 8.55 16.5375 8.55 16.3C8.55 16.0625 8.59047 15.831 8.68964 15.6079C8.78736 15.388 8.92539 15.2139 9.06967 15.0697Z" fill="black"/>
<path fill-rule="evenodd" clip-rule="evenodd" d="M6.49228 16.0603L6.46801 16.0927L6.44999 16.1107V16.2107L6.37057 16.2901C6.38151 16.3232 6.39581 16.3676 6.40794 16.4121C6.41179 16.4262 6.41592 16.4421 6.42003 16.4594C6.42328 16.4627 6.4267 16.4661 6.43032 16.4697C6.48604 16.5254 6.51197 16.5374 6.51709 16.5397C6.517 16.5396 6.51715 16.5397 6.51709 16.5397C6.51997 16.541 6.53953 16.55 6.59999 16.55C6.66045 16.55 6.67977 16.5411 6.68265 16.5398C6.68259 16.5398 6.68275 16.5398 6.68265 16.5398C6.68778 16.5375 6.71393 16.5254 6.76966 16.4697C6.82538 16.414 6.83735 16.3881 6.83963 16.3829C6.83959 16.383 6.83966 16.3829 6.83963 16.3829C6.84035 16.3814 6.8434 16.3748 6.84594 16.3597C6.84377 16.3531 6.8413 16.3457 6.83848 16.3372C6.83787 16.3354 6.83723 16.3335 6.83657 16.3315C6.83195 16.3177 6.82611 16.3002 6.81979 16.2805L6.63197 16.0927L6.60769 16.0603C6.59727 16.0557 6.57694 16.05 6.54999 16.05C6.52304 16.05 6.50271 16.0557 6.49228 16.0603ZM7.76123 15.1006C7.44021 14.7091 6.9659 14.55 6.54999 14.55C6.13409 14.55 5.6598 14.7091 5.33878 15.1006C5.29241 15.1473 5.22257 15.2199 5.16249 15.3C5.12047 15.3561 5.05204 15.4553 5.00423 15.5896C4.91871 15.7432 4.88697 15.8911 4.87269 15.9768C4.84976 16.1143 4.84992 16.242 4.84998 16.2932C4.84999 16.2956 4.84999 16.2979 4.84999 16.3C4.84999 16.3714 4.85853 16.4323 4.86608 16.4743C4.87395 16.5182 4.88366 16.5573 4.89204 16.588C4.90705 16.6431 4.9254 16.698 4.93657 16.7315C4.93723 16.7335 4.93787 16.7354 4.93848 16.7372C4.94554 16.7584 4.95041 16.7732 4.95387 16.784C4.97716 17.0351 5.09949 17.2161 5.16249 17.3C5.23323 17.3944 5.31752 17.4784 5.36108 17.5218C5.36415 17.5249 5.36701 17.5277 5.36966 17.5304C5.51393 17.6747 5.68801 17.8127 5.90788 17.9104C6.13102 18.0096 6.36247 18.05 6.59999 18.05C6.8375 18.05 7.06896 18.0096 7.29209 17.9104C7.51197 17.8127 7.68604 17.6747 7.83032 17.5304C7.97459 17.3861 8.11263 17.212 8.21035 16.9922C8.30952 16.769 8.34999 16.5376 8.34999 16.3C8.34999 16.2287 8.34145 16.1678 8.3339 16.1258C8.32603 16.0819 8.31632 16.0428 8.30794 16.0121C8.29293 15.957 8.27458 15.9021 8.26341 15.8686C8.26275 15.8666 8.26211 15.8647 8.2615 15.8629C8.25675 15.8486 8.25299 15.8373 8.24999 15.8281V15.5894L7.76123 15.1006Z" fill="black"/>
<path fill-rule="evenodd" clip-rule="evenodd" d="M10.3 16.05C10.2552 16.05 10.1942 16.0665 10.1304 16.1304C10.0747 16.1861 10.0627 16.212 10.0604 16.2172C10.0604 16.2172 10.0603 16.2173 10.0603 16.2174C10.059 16.2203 10.05 16.2396 10.05 16.3C10.05 16.3605 10.059 16.3798 10.0603 16.3827C10.0603 16.3828 10.0604 16.3829 10.0604 16.3829C10.0627 16.3881 10.0747 16.414 10.1304 16.4697C10.1861 16.5254 10.212 16.5374 10.2172 16.5397C10.2172 16.5397 10.2173 16.5398 10.2174 16.5398C10.2202 16.5411 10.2387 16.5496 10.2958 16.55C10.2979 16.5498 10.3031 16.5491 10.3112 16.5474C10.3273 16.544 10.3483 16.538 10.3715 16.5287C10.4217 16.5086 10.455 16.4844 10.4697 16.4697C10.5254 16.414 10.5374 16.3881 10.5397 16.3829C10.5397 16.3829 10.5398 16.3828 10.5398 16.3827C10.5411 16.3798 10.55 16.3605 10.55 16.3C10.55 16.2396 10.5411 16.2203 10.5398 16.2174C10.5398 16.2173 10.5397 16.2172 10.5397 16.2172C10.5374 16.212 10.5254 16.1861 10.4697 16.1304C10.4059 16.0665 10.3449 16.05 10.3 16.05ZM9.06972 15.0697C9.76261 14.3768 10.8375 14.3768 11.5304 15.0697C11.6747 15.214 11.8127 15.3881 11.9104 15.6079C12.0096 15.8311 12.05 16.0625 12.05 16.3C12.05 16.5376 12.0096 16.769 11.9104 16.9922C11.8127 17.212 11.6747 17.3861 11.5304 17.5304C11.1805 17.8802 10.6856 18.05 10.3 18.05C10.0625 18.05 9.83108 18.0096 9.60795 17.9104C9.38807 17.8127 9.21399 17.6747 9.06972 17.5304C8.92544 17.3861 8.78741 17.212 8.68969 16.9922C8.59052 16.769 8.55005 16.5376 8.55005 16.3C8.55005 16.0625 8.59052 15.8311 8.68969 15.6079C8.78741 15.3881 8.92544 15.214 9.06972 15.0697Z" fill="black"/>
<path fill-rule="evenodd" clip-rule="evenodd" d="M9 3.75C6.11421 3.75 3.75 6.11421 3.75 9V11.25H20.25V9C20.25 6.02236 17.894 3.75 15 3.75H9ZM2.25 9C2.25 5.28579 5.28579 2.25 9 2.25H15C18.706 2.25 21.75 5.17764 21.75 9V12.75H2.25V9Z" fill="black"/>
<path d="M6.5 9.1C6.2 9.1 6 9 5.8 8.8C5.7 8.7 5.7 8.6 5.6 8.4C5.6 8.3 5.5 8.1 5.5 8C5.5 7.9 5.5 7.7 5.6 7.6C5.7 7.5 5.7 7.4 5.8 7.3C6.2 6.9 6.8 6.9 7.2 7.3C7.3 7.4 7.4 7.5 7.4 7.6C7.5 7.7 7.5 7.9 7.5 8C7.5 8.3 7.4 8.5 7.2 8.7C7.1 9 6.8 9.1 6.5 9.1Z" fill="black"/>
<path d="M10.3 9.09998C10 9.09998 9.80005 8.99998 9.60005 8.79998C9.40005 8.59998 9.30005 8.29998 9.30005 8.09998C9.30005 7.79998 9.40005 7.59998 9.60005 7.39998C10 6.99998 10.6 6.99998 11 7.39998C11.2 7.49998 11.3 7.79998 11.3 8.09998C11.3 8.39998 11.2 8.59998 11 8.79998C10.8 8.99998 10.5 9.09998 10.3 9.09998Z" fill="black"/>
<path fill-rule="evenodd" clip-rule="evenodd" d="M12.95 8.09998C12.95 7.68576 13.2857 7.34998 13.7 7.34998H18.4C18.8142 7.34998 19.15 7.68576 19.15 8.09998C19.15 8.51419 18.8142 8.84998 18.4 8.84998H13.7C13.2857 8.84998 12.95 8.51419 12.95 8.09998Z" fill="black"/>
<path d="M7.5 16.3C7.5 16.6 7.4 16.8 7.2 17C7 17.2 6.8 17.3 6.5 17.3C6.2 17.3 6 17.2 5.8 17C5.7 16.9 5.6 16.8 5.6 16.7C5.6 16.6 5.5 16.4 5.5 16.3C5.5 16.2 5.5 16 5.6 15.9C5.6 15.8 5.7 15.7 5.8 15.6C6.2 15.2 6.9 15.2 7.2 15.6C7.3 15.7 7.4 15.8 7.4 15.9C7.5 16 7.5 16.2 7.5 16.3Z" fill="white"/>
<path d="M11.3 16.3C11.3 16.6 11.2 16.8 11 17C10.8 17.2 10.5 17.3 10.3 17.3C10 17.3 9.80005 17.2 9.60005 17C9.40005 16.8 9.30005 16.6 9.30005 16.3C9.30005 16 9.40005 15.8 9.60005 15.6C10 15.2 10.6 15.2 11 15.6C11.2 15.8 11.3 16 11.3 16.3Z" fill="white"/>
<path fill-rule="evenodd" clip-rule="evenodd" d="M12.95 16.3C12.95 15.8858 13.2857 15.55 13.7 15.55H18.4C18.8142 15.55 19.15 15.8858 19.15 16.3C19.15 16.7143 18.8142 17.05 18.4 17.05H13.7C13.2857 17.05 12.95 16.7143 12.95 16.3Z" fill="white"/>
</svg>

<svg xmlns="http://www.w3.org/2000/svg" fill="none" viewBox="0 0 24 24">
  <path fill="#000" d="M3 12v3c0 3.3 2.7 6 6 6h6c3.3 0 6-2.7 6-6v-3H3Zm4.2 5c-.2.2-.4.3-.7.3-.3 0-.5-.1-.7-.3-.1-.1-.2-.2-.2-.3 0-.1-.1-.3-.1-.4 0-.1 0-.3.1-.4 0-.1.1-.2.2-.3.4-.4 1.1-.4 1.4 0 .1.1.2.2.2.3 0 .1.1.3.1.4 0 .3-.1.5-.3.7Zm3.8 0c-.2.2-.5.3-.7.3-.3 0-.5-.1-.7-.3-.2-.2-.3-.4-.3-.7 0-.3.1-.5.3-.7.4-.4 1-.4 1.4 0 .2.2.3.4.3.7 0 .3-.1.5-.3.7Z"/>
  <path fill="#000" fill-rule="evenodd" d="M2.25 11.25h19.5V15c0 3.714-3.036 6.75-6.75 6.75H9c-3.714 0-6.75-3.036-6.75-6.75v-3.75Zm1.5 1.5V15c0 2.886 2.364 5.25 5.25 5.25h6c2.886 0 5.25-2.364 5.25-5.25v-2.25H3.75Zm2.6 3.363v.098l-.08.08a2.482 2.482 0 0 1 .05.168l.01.01a.32.32 0 0 0 .087.07c.003.002.023.011.083.011.06 0 .08-.009.083-.01a.32.32 0 0 0 .087-.07.324.324 0 0 0 .07-.087l.006-.023a3.696 3.696 0 0 0-.008-.023l-.001-.006a1.548 1.548 0 0 1-.057-.19l-.01-.01-.038-.038-.024-.032a.174.174 0 0 0-.07-.011.31.31 0 0 0-.188.063ZM7.761 15.1c-.324-.396-.801-.551-1.224-.551a1.8 1.8 0 0 0-1.267.52l-.009.008c-.043.044-.128.128-.199.222-.042.056-.11.155-.158.29a1.199 1.199 0 0 0-.131.387c-.023.137-.023.265-.023.316v.007a.988.988 0 0 0 .042.288c.015.055.033.11.045.143l.001.006.016.047c.023.251.146.432.208.516.071.094.156.178.2.222l.008.008c.144.145.318.283.538.38.223.1.454.14.692.14.238 0 .469-.04.692-.14.22-.097.394-.235.538-.38.145-.144.283-.318.38-.538.1-.223.14-.454.14-.692a.988.988 0 0 0-.042-.288 2.208 2.208 0 0 0-.045-.144l-.001-.005a4.776 4.776 0 0 1-.016-.047 1.022 1.022 0 0 0-.209-.516c-.06-.08-.13-.153-.176-.2Zm2.539.949a.24.24 0 0 0-.17.08.321.321 0 0 0-.07.087.203.203 0 0 0-.01.083c0 .06.009.08.01.083a.322.322 0 0 0 .07.087.321.321 0 0 0 .087.07c.003 0 .022.01.079.01a.374.374 0 0 0 .174-.08.321.321 0 0 0 .07-.087.203.203 0 0 0 .01-.083c0-.06-.009-.08-.01-.083a.322.322 0 0 0-.07-.087.24.24 0 0 0-.17-.08Zm-1.23-.98a1.716 1.716 0 0 1 2.46 0c.145.144.283.318.38.538.1.223.14.454.14.692 0 .238-.04.469-.14.692a1.826 1.826 0 0 1-1.61 1.058 1.68 1.68 0 0 1-.692-.14 1.786 1.786 0 0 1-.538-.38 1.784 1.784 0 0 1-.38-.538 1.68 1.68 0 0 1-.14-.692c0-.238.04-.469.14-.692.097-.22.235-.394.38-.538Z" clip-rule="evenodd"/>
  <path fill="#000" fill-rule="evenodd" d="m6.492 16.06-.024.033-.018.018v.1l-.08.08a2.455 2.455 0 0 1 .05.168l.01.01a.324.324 0 0 0 .087.07c.003.002.023.011.083.011.06 0 .08-.009.083-.01a.325.325 0 0 0 .087-.07.32.32 0 0 0 .07-.087l.006-.023-.008-.023a.746.746 0 0 1-.018-.056l-.188-.188-.024-.033a.15.15 0 0 0-.058-.01.15.15 0 0 0-.058.01Zm1.27-.96c-.322-.39-.796-.55-1.212-.55-.416 0-.89.16-1.211.55-.047.047-.116.12-.177.2-.042.056-.11.155-.158.29a1.2 1.2 0 0 0-.131.387c-.023.137-.023.265-.023.316v.007a.986.986 0 0 0 .042.288c.015.055.033.11.045.143a.746.746 0 0 0 .017.053c.023.251.145.432.208.516.071.094.156.178.2.222l.008.008c.144.145.318.283.538.38.223.1.454.14.692.14.238 0 .469-.04.692-.14.22-.097.394-.235.538-.38.145-.144.283-.318.38-.538.1-.223.14-.454.14-.692a.986.986 0 0 0-.042-.288 1.979 1.979 0 0 0-.045-.143.746.746 0 0 0-.002-.006l-.011-.035v-.239l-.489-.488Zm2.538.95a.24.24 0 0 0-.17.08.322.322 0 0 0-.07.087c-.001.003-.01.023-.01.083 0 .06.009.08.01.083a.322.322 0 0 0 .07.087.322.322 0 0 0 .087.07.198.198 0 0 0 .094.007.373.373 0 0 0 .159-.077.322.322 0 0 0 .07-.087c.001-.003.01-.023.01-.083 0-.06-.009-.08-.01-.083a.322.322 0 0 0-.07-.087.24.24 0 0 0-.17-.08Zm-1.23-.98a1.716 1.716 0 0 1 2.46 0c.145.144.283.318.38.538.1.223.14.454.14.692 0 .238-.04.469-.14.692a1.827 1.827 0 0 1-1.61 1.058c-.237 0-.469-.04-.692-.14a1.784 1.784 0 0 1-.538-.38 1.786 1.786 0 0 1-.38-.538 1.68 1.68 0 0 1-.14-.692c0-.238.04-.469.14-.692.097-.22.235-.394.38-.538ZM9 3.75C6.114 3.75 3.75 6.114 3.75 9v2.25h16.5V9c0-2.978-2.356-5.25-5.25-5.25H9ZM2.25 9c0-3.714 3.036-6.75 6.75-6.75h6c3.706 0 6.75 2.928 6.75 6.75v3.75H2.25V9Z" clip-rule="evenodd"/>
  <path fill="#000" d="M6.5 9.1c-.3 0-.5-.1-.7-.3-.1-.1-.1-.2-.2-.4 0-.1-.1-.3-.1-.4 0-.1 0-.3.1-.4.1-.1.1-.2.2-.3.4-.4 1-.4 1.4 0 .1.1.2.2.2.3.1.1.1.3.1.4 0 .3-.1.5-.3.7-.1.3-.4.4-.7.4Zm3.8 0c-.3 0-.5-.1-.7-.3-.2-.2-.3-.5-.3-.7 0-.3.1-.5.3-.7.4-.4 1-.4 1.4 0 .2.1.3.4.3.7 0 .3-.1.5-.3.7-.2.2-.5.3-.7.3Z"/>
  <path fill="#000" fill-rule="evenodd" d="M12.95 8.1a.75.75 0 0 1 .75-.75h4.7a.75.75 0 0 1 0 1.5h-4.7a.75.75 0 0 1-.75-.75Z" clip-rule="evenodd"/>
  <path fill="#fff" d="M7.5 16.3c0 .3-.1.5-.3.7-.2.2-.4.3-.7.3-.3 0-.5-.1-.7-.3-.1-.1-.2-.2-.2-.3 0-.1-.1-.3-.1-.4 0-.1 0-.3.1-.4 0-.1.1-.2.2-.3.4-.4 1.1-.4 1.4 0 .1.1.2.2.2.3.1.1.1.3.1.4Zm3.8 0c0 .3-.1.5-.3.7-.2.2-.5.3-.7.3-.3 0-.5-.1-.7-.3-.2-.2-.3-.4-.3-.7 0-.3.1-.5.3-.7.4-.4 1-.4 1.4 0 .2.2.3.4.3.7Z"/>
  <path fill="#fff" fill-rule="evenodd" d="M12.95 16.3a.75.75 0 0 1 .75-.75h4.7a.75.75 0 0 1 0 1.5h-4.7a.75.75 0 0 1-.75-.75Z" clip-rule="evenodd"/>
</svg>
